share/icons/Adwaita/scalable/devices/printer-symbolic.svg

<?xml version="1.0" encoding="UTF-8"?>
<!-- Created with Inkscape (http://www.inkscape.org/) -->
<svg id="svg7384" width="16" height="16" version="1.1" xmlns="http://www.w3.org/2000/svg" xmlns:cc="http://creativecommons.org/ns#" xmlns:dc="http://purl.org/dc/elements/1.1/" xmlns:rdf="http://www.w3.org/1999/02/22-rdf-syntax-ns#">
 <metadata id="metadata90">
  <rdf:RDF>
   <cc:Work rdf:about="">
    <dc:format>image/svg+xml</dc:format>
    <dc:type rdf:resource="http://purl.org/dc/dcmitype/StillImage"/>
    <dc:title>Gnome Symbolic Icon Theme</dc:title>
   </cc:Work>
  </rdf:RDF>
 </metadata>
 <title id="title9167">Gnome Symbolic Icon Theme</title>
 <g id="layer10" transform="translate(-142,-338)">
  <g id="layer1-6" transform="translate(142,338)">
   <path id="path3520" d="m2 4c-0.5 0-1 0.5-1 1v4c0 0.5 0.5 1 1 1h1v-2h10v2h1c0.5 0 1-0.5 1-1v-4c0-0.5-0.5-1-1-1h-12z" style="fill:#bebebe"/>
   <path id="path4804" d="m4 1v2h8v-2h-8z" style="fill:#bebebe"/>
   <path id="path4806" d="m4 9v5h8v-5l-8 1e-7zm1 1h6v1h-6v-1zm0 2h5v1h-5v-1z" style="fill:#bebebe"/>
  </g>
 </g>
</svg>

<?xml version='1.0' encoding='UTF-8'?>
<!-- Created with Inkscape (http://www.inkscape.org/) -->

<svg xmlns:cc='http://creativecommons.org/ns#' xmlns:inkscape='http://www.inkscape.org/namespaces/inkscape' xmlns:svg='http://www.w3.org/2000/svg' id='svg7384' xmlns:sodipodi='http://sodipodi.sourceforge.net/DTD/sodipodi-0.dtd' sodipodi:docname='printer-symbolic.svg' version='1.1' inkscape:version='0.47+devel r9385 custom' height='16' xmlns:dc='http://purl.org/dc/elements/1.1/' xmlns:rdf='http://www.w3.org/1999/02/22-rdf-syntax-ns#' xmlns='http://www.w3.org/2000/svg' width='16'>
  <metadata id='metadata90'>
    <rdf:RDF>
      <cc:Work rdf:about=''>
        <dc:format>image/svg+xml</dc:format>
        <dc:type rdf:resource='http://purl.org/dc/dcmitype/StillImage'/>
        <dc:title>Gnome Symbolic Icon Theme</dc:title>
      </cc:Work>
    </rdf:RDF>
  </metadata>
  <sodipodi:namedview inkscape:cy='72.4546' pagecolor='#555753' borderopacity='1' showborder='false' inkscape:bbox-paths='false' guidetolerance='10' inkscape:window-width='1310' showguides='true' inkscape:snap-bbox='true' inkscape:pageshadow='2' inkscape:guide-bbox='true' inkscape:snap-nodes='true' bordercolor='#666666' objecttolerance='10' id='namedview88' showgrid='false' inkscape:window-maximized='0' inkscape:window-x='1700' inkscape:window-y='68' gridtolerance='10' inkscape:window-height='920' inkscape:current-layer='layer10' inkscape:zoom='1' inkscape:cx='66.65058' inkscape:pageopacity='1'>
    <inkscape:grid spacingx='1px' spacingy='1px' id='grid4866' empspacing='2' enabled='true' type='xygrid' snapvisiblegridlinesonly='true' visible='true'/>
  </sodipodi:namedview>
  <title id='title9167'>Gnome Symbolic Icon Theme</title>
  <defs id='defs7386'/>
  <g inkscape:label='status' transform='translate(-142,-338)' inkscape:groupmode='layer' id='layer9' style='display:inline'/>
  <g inkscape:label='devices' transform='translate(-142,-338)' inkscape:groupmode='layer' id='layer10'>
    <g inkscape:label='accessories-calculator' transform='translate(94,-60)' id='g10819'>
      
    </g>
    <g inkscape:label='Layer 1' transform='translate(142,338)' id='layer1-6'>
      <path inkscape:connector-curvature='0' d='M 2,4 C 1.5,4 1,4.5 1,5 l 0,4 c 0,0.5 0.5,1 1,1 l 1,0 0,-2 10,0 0,2 1,0 c 0.5,0 1,-0.5 1,-1 L 15,5 C 15,4.5 14.5,4 14,4 L 2,4 z' id='path3520' sodipodi:nodetypes='ccccccccccccc' style='fill:#bebebe;fill-opacity:1;stroke:none'/>
      <path inkscape:connector-curvature='0' d='M 4,1 4,3 12,3 12,1 4,1 z' id='path4804' sodipodi:nodetypes='ccccc' style='fill:#bebebe;fill-opacity:1;stroke:none'/>
      <path inkscape:connector-curvature='0' d='M 4,9.0000001 4,14 l 8,0 0,-5 -8,10e-8 z M 5,10 l 6,0 0,1 -6,0 0,-1 z m 0,2 5,0 0,1 -5,0 0,-1 z' id='path4806' sodipodi:nodetypes='ccccccccccccccc' style='fill:#bebebe;fill-opacity:1;stroke:none'/>
    </g>
  </g>
  <g inkscape:label='apps' transform='translate(-142,-338)' inkscape:groupmode='layer' id='layer11'/>
  <g inkscape:label='actions' transform='translate(-142,-338)' inkscape:groupmode='layer' id='layer12'/>
  <g inkscape:label='places' transform='translate(-142,-338)' inkscape:groupmode='layer' id='layer13'/>
  <g inkscape:label='mimetypes' transform='translate(-142,-338)' inkscape:groupmode='layer' id='layer14'/>
  <g inkscape:label='emblems' transform='translate(-142,-338)' inkscape:groupmode='layer' id='layer15'/>
</svg>
